X: 135
T: Ayrılmak Ne Kadar Zor
C: Ekrem Güyer
O: Turkey
F: http://compmusic.upf.edu/node/140
N: nihavent--sarki--curcuna--ayrilmak_ne--ekrem_guyer
N: makam= nihavent
N: form= sarki
N: usul= curcuna = 10/8
M: 10/8
L: 1/16
K: C _B _e  
Q: 1/4=168
%%MIDI tuningsystem comma53
e14A2 B2c2  | d8-d2d2 c2B2 A2G2  | e14A2 B2c2  | \
w:  ARANAĞME  |   |   | 
d4 e2d2 c2B2 c2d6  | 
w:   | 
f8-f2g2 f2e2 d2c2  | e8-e2d2 c2B2 A2G2  | \
w:   |   | 
A2B2 c2d2 e2d2 c2B2 A2G2  | 
w:   | 
A4 B2A2 G2G2 ^F2G4z2  | e14A2 B2c2  | \
w:   |  ARANAĞME  | 
d8-d2d2 c2B2 A2G2  | e14A2 B2c2  | 
w:   |   | 
d4 e2d2 c2B2 c2d6  | f8-f2g2 f2e2 d2c2  | \
w:   |   | 
e8-e2d2 c2B2 A2G2  | 
w:   | 
A2B2 c2d2 e2d2 c2B2 A2G2  | A4 B2A2 G2G2 ^F2G4z2  | \
w:   |   | 
z4 c2d4d4d6  | 
w:  Ay *  rıl mak   | 
z4 f2e2 d2d2 e2f2 {g}feed  | d8-d2e2 {f}ede6  | \
w:  ne  ka *  dar   |  zor   | 
z4 f2e2 d2ed efg6  | 
w:  u nu *  tul *  *  *  mak   | 
z4 b2a2 g2fe edd6  | d2cd e2d2 c2Bc BAG6  | \
w:  çok  *  *  a *  *  *  cı    |  SAZ  | 
z4 c2d4d4d6  | 
w:  Ay *  rıl mak   | 
z4 f2e2 d2d2 e2f2 {g}feed  | d8-d2e2 {f}ede6  | \
w:  ne  ka *  dar   |  zor   | 
z4 f2e2 d2ed efg6  | 
w:  u nu *  tul *  *  *  mak   | 
z4 b2a2 g2fe edd6  | d2cd e2d2 c2BA Bcd6  | \
w:  çok  *  *  a *  *  *  cı    |  SAZ  | 
d4 b2b2 a2ag ^fgf6  | 
w:  Dün  *  gü *  len   | 
z4 c'2b2 a2g2 ^f2e2 d2f2  | e8-e2e2 {f}ede6  | \
w:  ba kış *  la  |  rın   | 
z4 A2B4c4d6  | z4 A2B2 A2B2 A2G2 ^F2A2  | 
w:  bu gün  ba na   |  ya ban  | 
G4 e2d2 c2BA Bcd6  | d4 b2b2 a2ag ^fgf6  | \
w:  cı   SAZ  |  Dün  *  gü *  len   | 
z4 c'2b2 a2g2 ^f2e2 d2f2  | 
w:  ba kış *  la  | 
e8-e2e2 {f}ede6  | z4 A2B4c4d6  | z4 A2B2 A2B2 A2G2 ^F2A2  | \
w:  rın   |  bu gün  ba na   |  ya ban  | 
G4 f2=e2 d2fe d^cd6  | 
w:  cı   SAZ  | 
z4 =e2f2 e2ed d^cd6  | d6d4d2 ^c2_7/8B4AG  | \
w:  O  ka *  dar   |  za lim  ol  | 
G8-G2D4G6  | z4 c2d4d4{d}e2 d2c2  | 
w:  ma  SAZ  |  bu  mah zun  *  kal  | 
f2_1/4ef g2_e2 d2d8-d2  | d4 f2=e2 d2fe d^cd6  | \
w:  be  *  *  kar *  *  şı    |  SAZ  | 
z4 =e2f2 e2ed d^cd6  | 
w:  O  ka *  dar   | 
d6d4d2 ^c2_7/8B4AG  | G8-G2D4G6  | z4 c2d4d4{d}e2 d2c2  | \
w:  za lim  ol  |  ma  SAZ  |  bu  mah zun  *  kal  | 
f2_1/4ef g2_e2 d2d8-d2  | 
w:  be  *  *  kar *  *  şı    | 
d2cd e2d2 c2BA Bcd6  | d4 b2b2 a2ag ^fgf6  | \
w:  SAZ  |  Dün  *  gü *  len   | 
z4 c'2b2 a2g2 ^f2e2 d2f2  | 
w:  ba kış *  la  | 
e8-e2e2 {f}ede6  | z4 A2B4c4d6  | z4 A2B2 A2B2 A2G2 ^F2A2  | \
w:  rın   |  bu gün  ba na   |  ya ban  | 
G4 e2d2 c2BA Bcd6  | 
w:  cı   SAZ  | 
d4 b2b2 a2ag ^fgf6  | z4 c'2b2 a2g2 ^f2e2 d2f2  | \
w:  Dün  *  gü *  len   |  ba kış *  la  | 
e8-e2e2 {f}ede6  | 
w:  rın   | 
z4 A2B4c4d6  | z4 A2B2 A2B2 A2G2 ^F2A2  | \
w:  bu gün  ba na   |  ya ban  | 
G4 e2d2 c2B2 A2G4z2  | 
w:  cı   KARAR  | 
|


